X: 06030
T: HULL'S RELIEF
C: Bob McQuillen 3 Jan 82
B: Bob's Note Book 6 #30
%R: reel, hornpipe
Z: 2021 John Chambers <jc:trillian.mit.edu>
M: C
L: 1/8
K: F
fd \
| c2cB A2FA | GFED C2FG | AGAB cdBc | A2F2 F2FG |\
| A2AG FAcf | gagf e2ef | g2gf dgfd | e2c2 c2 :|
|: ag \
| fedc dcBA | B2G2 G2ga | bagf egfd | e2c2 c2cB |\
| Acfc fcAc | Bdfd fdBd | cdfa gfeg | f2a2 f2 :|
%%begintext align
%% Sometime,
%% if you'ld like a change from Hull's
%% Victory, try this one. Once in a
%% while I get tired of playing the
%% regular tune.
%%endtext

%%sep 1 1 500

%%sep 1 1 500

